svg/fluentui-system-icons/ic_fluent_timer_10_20_regular.svg

<svg width="20" height="20" viewBox="0 0 20 20" fill="none" xmlns="http://www.w3.org/2000/svg">
<path d="M7 2.5C7 2.22386 7.22386 2 7.5 2H11.5C11.7761 2 12 2.22386 12 2.5C12 2.77614 11.7761 3 11.5 3H7.5C7.22386 3 7 2.77614 7 2.5ZM14.4492 3.92899C14.6444 3.73373 14.961 3.73373 15.1563 3.92899L16.5705 5.34321C16.7658 5.53847 16.7658 5.85505 16.5705 6.05031C16.3752 6.24558 16.0587 6.24558 15.8634 6.05031L14.4492 4.6361C14.2539 4.44084 14.2539 4.12426 14.4492 3.92899ZM9 6.5C9 6.22386 9.22386 6 9.5 6C9.77614 6 10 6.22386 10 6.5V10.5C10 10.7761 9.77614 11 9.5 11C9.22386 11 9 10.7761 9 10.5V6.5ZM9.5 18C10.0149 18 10.5168 17.9444 11 17.8389V16.811C10.5206 16.9344 10.0179 17 9.5 17C6.18629 17 3.5 14.3137 3.5 11C3.5 7.68629 6.18629 5 9.5 5C12.5296 5 15.0347 7.24537 15.442 10.1627C15.7544 10.0638 16.0857 10.0075 16.4292 10.0007C15.9443 6.60807 13.0267 4 9.5 4C5.63401 4 2.5 7.13401 2.5 11C2.5 14.866 5.63401 18 9.5 18ZM14 13.5C14 12.1193 15.1193 11 16.5 11C17.8807 11 19 12.1193 19 13.5V16.5C19 17.8807 17.8807 19 16.5 19C15.1193 19 14 17.8807 14 16.5V13.5ZM16.5 12C15.6716 12 15 12.6716 15 13.5V16.5C15 17.3284 15.6716 18 16.5 18C17.3284 18 18 17.3284 18 16.5V13.5C18 12.6716 17.3284 12 16.5 12ZM13 11.5C13 11.3393 12.9227 11.1884 12.7924 11.0944C12.662 11.0004 12.4944 10.9748 12.3419 11.0257L10.8419 11.5257C10.5799 11.613 10.4383 11.8961 10.5257 12.1581C10.613 12.4201 10.8961 12.5617 11.1581 12.4743L12 12.1937V18.5C12 18.7761 12.2239 19 12.5 19C12.7761 19 13 18.7761 13 18.5V11.5Z" fill="#212121"/>
</svg>

<svg xmlns="http://www.w3.org/2000/svg" width="20" height="20"><path d="M7 2.5a.5.5 0 0 1 .5-.5h4a.5.5 0 0 1 0 1h-4a.5.5 0 0 1-.5-.5Zm7.45 1.429a.5.5 0 0 1 .706 0l1.414 1.414a.5.5 0 1 1-.707.707L14.45 4.636a.5.5 0 0 1 0-.707ZM9 6.5a.5.5 0 0 1 1 0v4a.5.5 0 0 1-1 0v-4ZM9.5 18c.515 0 1.017-.056 1.5-.161V16.81a6 6 0 1 1 4.442-6.648c.312-.1.644-.155.987-.162A7.002 7.002 0 0 0 2.5 11a7 7 0 0 0 7 7Zm4.5-4.5a2.5 2.5 0 0 1 5 0v3a2.5 2.5 0 0 1-5 0v-3Zm2.5-1.5a1.5 1.5 0 0 0-1.5 1.5v3a1.5 1.5 0 0 0 3 0v-3a1.5 1.5 0 0 0-1.5-1.5Zm-3.5-.5a.5.5 0 0 0-.658-.474l-1.5.5a.5.5 0 1 0 .316.948l.842-.28V18.5a.5.5 0 0 0 1 0v-7Z"/></svg>
